X:915
T:The Coneflower waltz
R:Waltz
O:USA
C:Kim Fulton-Bennett
S:Kim Fulton-Bennett
Z:Transcription, chords:Mike Long
M:3/4
L:1/4
K:G
B/A/|:\
"G"GB/z d/|GB/z d/|"C"g>fe|"G"d<BA|\
"G"GB/z D/|GB/z d/|"Am"c>BA/G/|"C"E2"D"D|
"G"GB/z d/|GB/z d/|"C"g>fe|"G"d<BA|\
"G"G>AB|"Em"A<GE|"Em"E2"D"D|[1 "Em"E2D/E/:|[2 "Em"E2d/e/|]
|:"G"g>fg/f/|"Em"edd/e/|"G"g>ed/B/|"Am"A2G/A/|\
"C"c>BA/G/|"Am"e>dc/B/|"D"d2B|A2e/f/|
"G"g>fe/d/|"Em"gb/a/g/f/|"C"e2d|"G"B2E/G/|\
"Am"c>Bd|"G"B>AG/F/|"C"A<G"D"F|"G"G3:|
